X:1
T:Title
%%score { ( 1 3 ) | ( 2 4 ) }
L:1/8
M:4/4
K:Bb
V:1 treble nm="Grand Piano"
V:3 treble 
V:2 bass 
V:4 bass 
V:1
 z4 z2[Q:1/4=100] [DB]2 | F2 G2 F2 E2 | D6 [FB]2 | z4 c4 |[M:3/4] [DB]6 |[M:1/4] [Fd]2 | %6
[M:4/4] [Fc]2 [Fd]2 [=Ec]2 .[A,FA]2 | [C=EG]6 [CFc]2 | z4 G4 |[M:3/4] F6 |[M:1/4] F2 | %11
[M:4/4] z4 z2 c2 | B6 [FB]2 | [Ee]2 [Fd]2 c4 |[M:3/4] c6 |[M:1/4] [Fd]2 | %16
[M:4/4] [=Ec]2 [CGB]2 [CFA]2 .[B,FG]2 | [A,F]6 [B,FB]2 | z4 c4 |[M:7/4] [DB]6 z2 z2 z4 | %20
[M:4/4] [EB]4 [DB]4 |] %21
V:2
 z4 z2 [B,,F,]2 | [D,B,]2 [E,B,E]2 [F,B,D]2 [F,A,]2 | [B,,F,B,]6 [D,B,]2 | z4 [F,F]4 | %4
[M:3/4] [B,,B,]6 |[M:1/4] [B,,B,]2 |[M:4/4] [F,A,]2 [B,,B,]2 [C,G,]2 z B, | C,6 A,2 | %8
 =E,2 F,2 z2 B,2 |[M:3/4] [F,A,]6 |[M:1/4] [E,A,]2 |[M:4/4] [D,B,]2 [C,A,]2 [B,,B,]2 .[F,B,E]2 | %12
 [G,D]6 [D,B,]2 | .[C,G,]2 .[D,B,]2 [F,A,F]2 [C,B,]2 |[M:3/4] [F,A,F]6 |[M:1/4] [B,,B,]2 | %16
[M:4/4] [C,G,]2 =E,2 F,2 z =E | F,6 D,2 | z4 B,2 z2 |[M:7/4] [B,,F,]6 z2 z2 z4 | %20
[M:4/4] [E,G,]4 [B,,F,]4 |] %21
V:3
 x8 | x8 | x8 | [Ec]2 [Dd]2 z2 A,2 |[M:3/4] x6 |[M:1/4] x2 |[M:4/4] x8 | x8 | %8
 [CGc]2 [CFA]2 [CF]2 =E2 |[M:3/4] x6 |[M:1/4] x2 |[M:4/4] [FB]2 [Ec]2 [Dd]2 z A, | x8 | %13
 z A, z E, z2 =E2 |[M:3/4] x6 |[M:1/4] x2 |[M:4/4] x8 | x8 | [Fc]2 [Fd]2 z2 A,2 |[M:7/4] x14 | %20
[M:4/4] x8 |] %21
V:4
 x8 | x8 | x8 | [C,A,]2 [B,,B,]2 B,2 z2 |[M:3/4] x6 |[M:1/4] x2 |[M:4/4] z4 z2 F,2 | x8 | z4 C,4 | %9
[M:3/4] x6 |[M:1/4] x2 |[M:4/4] x8 | x8 | x8 |[M:3/4] x6 |[M:1/4] x2 |[M:4/4] z4 z2 C,2 | x8 | %18
 [C,A,]2 [B,,B,]2 [F,F]4 |[M:7/4] x14 |[M:4/4] x8 |] %21

